packages/ui-icons/svg/Solid/admin.svg

<svg viewBox="0 0 1920 1920" version="1.1" xmlns="http://www.w3.org/2000/svg">
    <path d="M983.727059,5.42117647 L1723.04,353.618824 C1742.80471,362.992941 1755.45412,382.870588 1755.45412,404.781176 L1755.45412,1006.30588 C1755.45412,1495.90588 1331.24706,1726.08 1021.67529,1894.24941 L986.776471,1913.22353 C978.305882,1917.74118 969.044706,1920.11294 959.670588,1920.11294 C950.409412,1920.11294 941.148235,1917.74118 932.677647,1913.22353 L897.778824,1894.24941 C588.094118,1726.08 164,1495.90588 164,1006.30588 L164,404.781176 C164,382.870588 176.649412,362.992941 196.414118,353.618824 L935.727059,5.42117647 C950.861176,-1.80705882 968.592941,-1.80705882 983.727059,5.42117647 Z M757.088,383.322353 C581.012706,383.322353 437.803294,526.644706 437.803294,702.72 C437.803294,878.795294 581.012706,1022.00471 757.088,1022.00471 C759.008,1022.00471 760.928,1022.00471 762.848,1021.89176 L762.848,1021.89176 L821.351529,1080.39529 L905.040941,1080.39529 L905.040941,1197.17647 L1021.82212,1197.17647 L1021.82212,1280.97882 L1113.41741,1372.46118 L1426.82918,1372.46118 L1426.82918,1059.04941 L1076.25976,708.367059 C1076.37271,706.56 1076.37271,704.64 1076.37271,702.72 C1076.37271,526.644706 933.163294,383.322353 757.088,383.322353 Z M757.088,496.263529 C870.819765,496.263529 963.431529,588.988235 962.415059,712.884706 L962.415059,712.884706 L958.462118,750.155294 L1313.888,1105.80706 L1313.888,1259.52 L1160.17506,1259.52 L1134.76329,1234.22118 L1134.76329,1084.23529 L1017.98212,1084.23529 L1017.98212,967.454118 L868.109176,967.454118 L804.297412,903.755294 L757.088,909.063529 C643.356235,909.063529 550.744471,816.564706 550.744471,702.72 C550.744471,588.988235 643.356235,496.263529 757.088,496.263529 Z M762.068706,621.244235 C715.311059,621.244235 677.362824,659.192471 677.362824,705.950118 C677.362824,752.707765 715.311059,790.656 762.068706,790.656 C808.826353,790.656 846.774588,752.707765 846.774588,705.950118 C846.774588,659.192471 808.826353,621.244235 762.068706,621.244235 Z" stroke="none" stroke-width="1" fill-rule="evenodd"/>
</svg>

<svg viewBox="0 0 1920 1920" xmlns="http://www.w3.org/2000/svg">
    <path d="M983.727 5.421 1723.04 353.62c19.765 9.374 32.414 29.252 32.414 51.162v601.525c0 489.6-424.207 719.774-733.779 887.943l-34.899 18.975c-8.47 4.517-17.731 6.889-27.105 6.889-9.262 0-18.523-2.372-26.993-6.89l-34.9-18.974C588.095 1726.08 164 1495.906 164 1006.306V404.78c0-21.91 12.65-41.788 32.414-51.162L935.727 5.42c15.134-7.228 32.866-7.228 48 0ZM757.088 383.322c-176.075 0-319.285 143.323-319.285 319.398 0 176.075 143.21 319.285 319.285 319.285 1.92 0 3.84 0 5.76-.113l58.504 58.503h83.689v116.781h116.781v83.803l91.595 91.482h313.412V1059.05l-350.57-350.682c.114-1.807.114-3.727.114-5.647 0-176.075-143.21-319.398-319.285-319.398Zm0 112.942c113.732 0 206.344 92.724 205.327 216.62l-3.953 37.271 355.426 355.652v153.713h-153.713l-25.412-25.299v-149.986h-116.78v-116.78H868.108l-63.812-63.7-47.209 5.309c-113.732 0-206.344-92.5-206.344-206.344 0-113.732 92.612-206.456 206.344-206.456Zm4.98 124.98c-46.757 0-84.705 37.948-84.705 84.706s37.948 84.706 84.706 84.706c46.757 0 84.706-37.948 84.706-84.706s-37.949-84.706-84.706-84.706Z" fill-rule="evenodd"/>
</svg>
